X: 27220
T: Miss Rowan Davies
R: waltz
M: 3/4
K: Gmajor
|:"G"BA|G4 D2|"D/F#" D3 E F2|"Em"(G6|G2) g2 f2|"C" e3 G G2|"G" d3 G B2|"Am" A4B/A/G/A/|"D" B3A3|
"G"G4 D2|"D/F#" D3 E F2|"Em" (G6|G3) A BG|"C" E c3 cA|"D" F4 FG|"G" ((G6|1 G4):|2 G4 GF||
|:"Cadd9"E3 F E2|e3 G G2|"G"(d6|d4) BA|"Em" G3 A B2|"C" d G3 A2|"G"B6|B2 c2 d2|
"C"e3 E G2|"D" F3 G AF|"G" G3 A GF|"Em"G3 A BG|"C" E c3 cA|"D"F4 FG|1 "G"G4 GF:|2 "G" G6||

